X:68
T:Tater Roll
C:Harvey Taylor
B:Dear Old Illinois, p.339
Z:abc-transcription Josh Larios <hades@elsewhere.org>, 2014.07.01
M:2/4
L:1/8
K:D
e/ |: "D"fa f>f | "G"ed B>B | Bb "A"af | "D"e[fd] [fd]>e |
fa>ef/e/ | "G"dB B>B | "D"A[AF]>[AF][AF] |1 "A"[AE][AD] [AD]> e :|2 "A"[AE][AD] [AD]> ||
[AE] |: "D"[AF][AF]>[AE][AD]/[AF]/ | [AE][AF] "G"[BG]>B | "D"A[AF]>[AE][AF] |1 "A"[AE][AD] "D"[AD]>[AE] :|2 "A"[AE][AD] "D"[AD]> |]

